public/support.svg

<svg width="70" height="70" viewBox="0 0 70 70" fill="none" xmlns="http://www.w3.org/2000/svg">
<path d="M60 0H10C4.47715 0 0 4.47715 0 10V60C0 65.5229 4.47715 70 10 70H60C65.5229 70 70 65.5229 70 60V10C70 4.47715 65.5229 0 60 0Z" fill="#F3FCF7"/>
<path d="M35 23.625C33.2926 23.6241 31.6017 23.9597 30.024 24.6127C28.4464 25.2657 27.0129 26.2232 25.8056 27.4306C24.5982 28.6379 23.6407 30.0714 22.9877 31.649C22.3347 33.2267 21.9991 34.9176 22 36.625V39.063C22.0002 39.3649 22.0846 39.6607 22.2435 39.9174C22.4025 40.174 22.6298 40.3813 22.9 40.516L23.63 40.881C23.6801 42.3551 24.3008 43.752 25.3613 44.7771C26.4218 45.8021 27.8391 46.3751 29.314 46.375H30.531C30.8543 46.375 31.1644 46.2466 31.393 46.018C31.6216 45.7894 31.75 45.4793 31.75 45.156V36.219C31.75 35.8957 31.6216 35.5856 31.393 35.357C31.1644 35.1284 30.8543 35 30.531 35H29.313C28.556 34.9991 27.8066 35.1497 27.1088 35.4431C26.4109 35.7364 25.7789 36.1665 25.25 36.708V36.625C25.25 34.0391 26.2772 31.5592 28.1057 29.7307C29.9342 27.9022 32.4141 26.875 35 26.875C37.5859 26.875 40.0658 27.9022 41.8943 29.7307C43.7228 31.5592 44.75 34.0391 44.75 36.625V36.708C44.2212 36.1666 43.5893 35.7366 42.8917 35.4433C42.1941 35.1499 41.4448 34.9992 40.688 35H39.469C39.3089 35 39.1504 35.0315 39.0025 35.0928C38.8546 35.1541 38.7202 35.2438 38.607 35.357C38.4938 35.4702 38.4041 35.6046 38.3428 35.7525C38.2815 35.9004 38.25 36.0589 38.25 36.219V45.157C38.25 45.3171 38.2815 45.4756 38.3428 45.6235C38.4041 45.7714 38.4938 45.9058 38.607 46.019C38.7202 46.1322 38.8546 46.222 39.0025 46.2832C39.1504 46.3445 39.3089 46.376 39.469 46.376H40.688C42.1629 46.3761 43.5802 45.8031 44.6407 44.7781C45.7012 43.753 46.3219 42.3561 46.372 40.882L47.102 40.517C47.3722 40.3823 47.5995 40.175 47.7585 39.9184C47.9174 39.6617 48.0018 39.3659 48.002 39.064V36.625C48.0029 34.9174 47.6672 33.2263 47.0141 31.6486C46.361 30.0708 45.4033 28.6372 44.1957 27.4299C42.9882 26.2225 41.5545 25.265 39.9766 24.6121C38.3987 23.9593 36.7076 23.6238 35 23.625Z" fill="#3A76BF"/>
</svg>

<svg width="70" height="70" fill="none" xmlns="http://www.w3.org/2000/svg"><path d="M60 0H10C4.477 0 0 4.477 0 10v50c0 5.523 4.477 10 10 10h50c5.523 0 10-4.477 10-10V10c0-5.523-4.477-10-10-10z" fill="#F3FCF7"/><path d="M35 23.625a12.994 12.994 0 0 0-13 13v2.438a1.625 1.625 0 0 0 .9 1.453l.73.365a5.687 5.687 0 0 0 5.684 5.494h1.217a1.22 1.22 0 0 0 1.219-1.219v-8.937A1.22 1.22 0 0 0 30.531 35h-1.218a5.67 5.67 0 0 0-4.063 1.708v-.083a9.75 9.75 0 1 1 19.5 0v.083A5.669 5.669 0 0 0 40.688 35h-1.219a1.218 1.218 0 0 0-1.219 1.219v8.938a1.218 1.218 0 0 0 1.219 1.219h1.219a5.687 5.687 0 0 0 5.684-5.494l.73-.365a1.626 1.626 0 0 0 .9-1.453v-2.439a12.993 12.993 0 0 0-13.002-13z" fill="#3A76BF"/></svg>
